X:1
T:LA DAME BLANCHE DE L' ALBARINE
C:Michel PLATRE
Z:Creative Commons BY-NC-SA
L:1/4
M:3/4
K:Eb
V:1 treble nm="Part_1"
V:1
 e2 d | c2 B | e2 f | g3 | f e d | c3 | B c d | G3 | e2 d | c2 B | e2 f | g3 | f e d | c2 B | %14
 e2 d | c3 :: e2 f | g2 g | g2 a | g3 | f2 e | d2 c | B c d | G3 | e2 f | g2 g | g2 a | g3 | f2 e | %29
 d2 c | B2 d | c3 :| %32

